!!!COM: Palestrina, Giovanni Perluigi da
!!!OPR: Missa Salve regina
!!!OMD: Kyrie
!!!OTL: First Section
**kern	**kern	**kern	**kern	**kern
*Ibass	*Itenor	*Icalto	*Icalto	*Icant
!Bassus	!Tenor	!Altus 2	!Altus 1	!Cantus
*clefF4	*clefGv2	*clefG2	*clefG2	*clefG2
*k[b-]	*k[b-]	*k[b-]	*k[b-]	*k[b-]
*G:dor	*G:dor	*G:dor	*G:dor	*G:dor
*M4/2	*M4/2	*M4/2	*M4/2	*M4/2
=1	=1	=1	=1	=1
0r	0r	0r	1a	1r
.	.	.	1g	1dd
=2	=2	=2	=2	=2
0r	0r	0r	1a	1cc
.	.	.	2d	1dd
.	.	.	[2g	.
=3	=3	=3	=3	=3
0r	0r	0r	2g]	2g
.	.	.	2f	1dd
.	.	.	1e-	.
.	.	.	.	2cc
=4	=4	=4	=4	=4
0r	1r	0r	2d	1b-
.	.	.	2g	.
.	1d	.	2f	1a
.	.	.	[2a	.
=5	=5	=5	=5	=5
0r	1c	0r	4a]	2.cc
.	.	.	4g	.
.	.	.	1g	.
.	.	.	.	4b-
.	1d	.	.	1a
.	.	.	2f#	.
=6	=6	=6	=6	=6
0r	2G	1r	2g	4b-
.	.	.	.	4cc
.	1d	.	2f	4dd
.	.	.	.	4ee
.	.	1a	2d	2ff
.	2c	.	2e	[2ee
=7	=7	=7	=7	=7
0r	1B-	1g	4g	4ee]
.	.	.	4f	4dd
.	.	.	4e	1dd
.	.	.	4d	.
.	1A	1a	2.e	.
.	.	.	.	2cc
.	.	.	4f	.
=8	=8	=8	=8	=8
0r	2.G	2d	1g	1.b-
.	.	1g	.	.
.	4A	.	.	.
.	4B-	.	1d	.
.	4c	.	.	.
.	[2d	2f	.	4a
.	.	.	.	4g
=9	=9	=9	=9	=9
1A	2d]	2.e	2r	1a
.	2c	.	2a	.
.	.	4f	.	.
1G	4B-	1g	2b-	1r
.	4G	.	.	.
.	[2d	.	2b-	.
=10	=10	=10	=10	=10
1A	2d]	2e	2.a	0r
.	2c#	1a	.	.
.	.	.	4g	.
2D	2d	.	4f	.
.	.	.	4e	.
[2G	4B-	2b-	4d	.
.	4c	.	4c	.
=11	=11	=11	=11	=11
2G]	4d	2g	2B-	0r
.	4B-	.	.	.
2F	2.c	2.a	2A	.
1E-	.	.	1c	.
.	4B-	4g	.	.
.	4A	[2g	.	.
.	4G	.	.	.
=12	=12	=12	=12	=12
1D	1A	2g]	1d	1r
.	.	2f#	.	.
1G	1B	2g	2r	1dd
.	.	2g	2d	.
=13	=13	=13	=13	=13
0r	0r	2g	2e	1cc
.	.	2a	2f	.
.	.	2b-	2B-	1dd
.	.	2g	[2b-	.
=14	=14	=14	=14	=14
0r	0r	2.b-	2b-]	2g
.	.	.	2g	1dd
.	.	4a	.	.
.	.	2g	2b-	.
.	.	[2a	2f	2cc
=15	=15	=15	=15	=15
1r	1r	4a]	1g	1b-
.	.	4g	.	.
.	.	1g	.	.
2r	1d	.	1r	1a
2D	.	2f	.	.
=16	=16	=16	=16	=16
2E	1c	2g	2r	1cc
2F	.	2a	1f	.
2BB-	1d	2.f	.	2.b-
[2B-	.	.	2d	.
.	.	4e	.	4cc
=17	=17	=17	=17	=17
2B-]	2G	1d	2.b-	2.dd
2G	1d	.	.	.
.	.	.	4a	4cc
2B-	.	1r	4f	4dd
.	.	.	4g	4ee
2F	2c	.	[2a	2ff
=18	=18	=18	=18	=18
1G	1B-	2r	4a]	0dd
.	.	.	4g	.
.	.	2g	1g	.
1D	1A	2a	.	.
.	.	2a	2f#	.
=19	=19	=19	=19	=19
1G	1G	2b-	2g	2r
.	.	2b-	2d	2dd
1r	2r	1cc	1a	2ee
.	2A	.	.	[2ff
=20	=20	=20	=20	=20
0r	2B-	2r	1g	2ff]
.	2c	1cc	.	2ee
.	2F	.	1a	2ff
.	[2f	2a	.	2cc
=21	=21	=21	=21	=21
0r	2f]	2.f	2d	2dd
.	2d	.	1a	1ff
.	.	4g	.	.
.	2f	4a	.	.
.	.	4b-	.	.
.	2c	2cc	2g	[2ee
=22	=22	=22	=22	=22
0r	1d	2b-	1f	4ee]
.	.	.	.	4dd
.	.	2.a	.	1dd
.	1A	.	2e	.
.	.	4g	.	.
.	.	2e	[2a	2cc#
=23	=23	=23	=23	=23
2r	1d	2f	2a]	1dd
2D	.	2f	2b-	.
2E	1c	2g	1cc	2r
2F	.	2a	.	[2ff
=24	=24	=24	=24	=24
2BB-	1d	1b-	2b-	2ff]
1B-	.	.	2f	2.dd
.	2G	2.b-	2.g	.
.	.	.	.	4cc
2G	[2d	.	.	[2b-
.	.	4a	4f	.
=25	=25	=25	=25	=25
2B-	2d]	4f	4d	2b-]
.	.	4g	4e	.
2F	2c	2.a	2f	2a
1G	1B-	.	[1d	2.b-
.	.	4g	.	.
.	.	[2g	.	.
.	.	.	.	4cc
=26	=26	=26	=26	=26
0D	0A	2g]	0d]	1dd
.	.	4f#	.	.
.	.	4e	.	.
.	.	1f#	.	1a
=27	=27	=27	=27	=27
0G	0G	0g	0d	0b
*-	*-	*-	*-	*-
!!!CDT: 1525/^1526/-1594/2/2
!!!OCY: Italia
!!!AGN: Mass (Paraphrase)
!!!AST: renaissance, vocal
!!!ASW: Antiphon
!!!PWK: Masses, Book 11
!!!RNB: Cadence finals: D
!!!YOR: Le Opere Complete, v. 28, p. 185
!!!YOO: Rome, Italy: Fratelli Scalera
!!!END: 1992//
!!!EED: John Miller
!!!YEC: Copyright 2000, John Miller
!!!YEN: United States of America
!!!YEM: Rights to all derivative electronic formats reserved.
!!!YEM: Refer to licensing agreement for further details.
!!!YEM: This file must be accompanied by the licensing agreement.
!!!YEM: A copy of the licensing agreement may be found at http://www.music-cog.ohio-state.edu/HumdrumDatabases/Palestrina/license.txt
!!!EMD: converted to Humdrum by Bret Aarden
